src/images/global/icons/action/zoom-in-line.svg

<?xml version="1.0" encoding="UTF-8"?>
<svg width="48px" height="48px" viewBox="0 0 48 48" version="1.1" xmlns="http://www.w3.org/2000/svg" xmlns:xlink="http://www.w3.org/1999/xlink">
    <!-- Generator: Sketch 46.2 (44496) - http://www.bohemiancoding.com/sketch -->
    <title>icon/Action/zoom-in-line</title>
    <desc>Created with Sketch.</desc>
    <defs>
        <path d="M23.5584544,20.9261498 C24.1978744,21.5170665 24.1364605,22.5516318 23.4155402,23.3326835 C23.0080383,23.7741426 22.4999886,23.9998848 22.0038291,24 C21.6046389,24 21.2132987,23.8537689 20.8882207,23.5563515 C20.171687,22.9005584 14.9169913,17.7012287 13.7972271,16.5925684 C12.4088348,17.4664983 10.7658983,17.9741013 9.00313539,17.9741013 C4.03080495,17.9741013 0,13.9503824 0,8.98705065 C0,4.02360364 4.03080495,0 9.00313539,0 C13.9753504,0 18.0061553,4.02360364 18.0062708,8.98716588 C18.0062708,10.8638566 17.4291882,12.6057242 16.4436802,14.0470632 C17.6750745,15.2435313 22.8820937,20.3010088 23.5584544,20.9261498 Z M1.38527535,8.98705065 C1.38527535,13.1800473 4.80263421,16.5913008 9.00313539,16.5913008 C13.2035211,16.5913008 16.6209954,13.1800473 16.6209954,8.98705065 C16.6209954,4.79405396 13.2036366,1.38280046 9.00313539,1.38280046 C4.80263421,1.38280046 1.38527535,4.79405396 1.38527535,8.98705065 Z M22.224896,22.5416064 C22.5096855,22.3593073 22.6343603,22.0323902 22.6133503,21.9370922 C21.9149406,21.290633 16.96489,16.4833272 15.5718802,15.1296808 C15.3654742,15.349546 15.147986,15.5586946 14.9205699,15.7570112 C16.2777935,17.1002866 21.1627361,21.931561 21.8243205,22.5369971 C21.8911601,22.5979556 21.9919388,22.6903727 22.224896,22.5416064 Z M12.4663238,8.29565042 C12.8488906,8.29565042 13.1589614,8.60528249 13.1589614,8.98705065 C13.1589614,9.36881881 12.8487752,9.67845088 12.4663238,9.67845088 L9.69577307,9.67845088 L9.69577307,12.4440518 C9.69577307,12.82582 9.38558683,13.135452 9.00313539,13.135452 C8.62068395,13.135452 8.31049771,12.82582 8.31049771,12.4440518 L8.31049771,9.67845088 L5.53994701,9.67845088 C5.15749557,9.67845088 4.84730934,9.36881881 4.84730934,8.98705065 C4.84730934,8.60528249 5.15749557,8.29565042 5.53994701,8.29565042 L8.31049771,8.29565042 L8.31049771,5.5300495 C8.31049771,5.14828134 8.62068395,4.83864927 9.00313539,4.83864927 C9.38558683,4.83864927 9.69577307,5.14828134 9.69577307,5.5300495 L9.69577307,8.29565042 L12.4663238,8.29565042 Z" id="path-1"></path>
    </defs>
    <g id="Symbols" stroke="none" stroke-width="1" fill="none" fill-rule="evenodd">
        <g id="icon/Action/zoom-in-line">
            <g id="Icon" transform="translate(12.000000, 12.000000)">
                <mask id="mask-2" fill="white">
                    <use xlink:href="#path-1"></use>
                </mask>
                <use id="Mask" fill="#384048" xlink:href="#path-1"></use>
                <g id="Color/Grayscale/Night-Sky" mask="url(#mask-2)" fill="#111111">
                    <g transform="translate(-12.000000, -12.000000)" id="Swatch">
                        <rect x="0" y="0" width="48" height="48"></rect>
                    </g>
                </g>
            </g>
        </g>
    </g>
</svg>

<?xml version="1.0" encoding="utf-8"?>
<!-- Generator: Adobe Illustrator 21.0.2, SVG Export Plug-In . SVG Version: 6.00 Build 0)  -->
<svg version="1.1" id="action-zoom-in-line-Layer_1" xmlns="http://www.w3.org/2000/svg" xmlns:xlink="http://www.w3.org/1999/xlink" x="0px" y="0px"
	 viewBox="0 0 48 48" style="enable-background:new 0 0 48 48;" xml:space="preserve">
<title>icon/Action/zoom-in-line</title>
<g transform="translate(12 12)">
	<g>
		<path id="action-zoom-in-line-a_1_" style="fill:#384048;" d="M23.6,20.9c0.6,0.6,0.6,1.6-0.1,2.4C23,23.8,22.5,24,22,24c-0.4,0-0.8-0.1-1.1-0.4
			c-0.7-0.7-6-5.9-7.1-7C12.4,17.5,10.7,18,9,18c-5,0-9-4-9-9s4-9,9-9c5,0,9,4,9,9c0,1.8-0.5,3.6-1.6,5.1
			C17.7,15.2,22.9,20.3,23.6,20.9L23.6,20.9z M1.4,9c0,4.2,3.4,7.6,7.6,7.6s7.6-3.4,7.6-7.6S13.2,1.4,9,1.4C4.8,1.4,1.4,4.8,1.4,9z
			 M22.2,22.5c0.3-0.2,0.4-0.5,0.4-0.6c-0.7-0.6-5.6-5.5-7-6.8c-0.2,0.2-0.4,0.4-0.7,0.6c1.4,1.3,6.2,6.2,6.9,6.8
			C21.9,22.6,22,22.7,22.2,22.5L22.2,22.5z M12.5,8.3c0.4,0,0.7,0.3,0.7,0.7s-0.3,0.7-0.7,0.7c0,0,0,0-0.1,0H9.7v2.8
			c0,0.4-0.3,0.7-0.7,0.7s-0.7-0.3-0.7-0.7V9.7H5.5C5.2,9.7,4.8,9.4,4.8,9c0-0.4,0.3-0.7,0.7-0.7c0,0,0,0,0.1,0h2.8V5.5
			c0-0.4,0.3-0.7,0.7-0.7s0.7,0.3,0.7,0.7v2.8C9.7,8.3,12.5,8.3,12.5,8.3z"/>
	</g>
	<defs>
		<filter id="action-zoom-in-line-Adobe_OpacityMaskFilter" filterUnits="userSpaceOnUse" x="-12" y="-12" width="48" height="48">
			<feColorMatrix  type="matrix" values="1 0 0 0 0  0 1 0 0 0  0 0 1 0 0  0 0 0 1 0"/>
		</filter>
	</defs>
	<mask maskUnits="userSpaceOnUse" x="-12" y="-12" width="48" height="48" id="action-zoom-in-line-b">
		<g style="filter:url(#action-zoom-in-line-Adobe_OpacityMaskFilter);">
			<path id="action-zoom-in-line-a" style="fill:#FFFFFF;" d="M23.6,20.9c0.6,0.6,0.6,1.6-0.1,2.4C23,23.8,22.5,24,22,24c-0.4,0-0.8-0.1-1.1-0.4
				c-0.7-0.7-6-5.9-7.1-7C12.4,17.5,10.7,18,9,18c-5,0-9-4-9-9s4-9,9-9c5,0,9,4,9,9c0,1.8-0.5,3.6-1.6,5.1
				C17.7,15.2,22.9,20.3,23.6,20.9L23.6,20.9z M1.4,9c0,4.2,3.4,7.6,7.6,7.6s7.6-3.4,7.6-7.6S13.2,1.4,9,1.4C4.8,1.4,1.4,4.8,1.4,9z
				 M22.2,22.5c0.3-0.2,0.4-0.5,0.4-0.6c-0.7-0.6-5.6-5.5-7-6.8c-0.2,0.2-0.4,0.4-0.7,0.6c1.4,1.3,6.2,6.2,6.9,6.8
				C21.9,22.6,22,22.7,22.2,22.5L22.2,22.5z M12.5,8.3c0.4,0,0.7,0.3,0.7,0.7s-0.3,0.7-0.7,0.7c0,0,0,0-0.1,0H9.7v2.8
				c0,0.4-0.3,0.7-0.7,0.7s-0.7-0.3-0.7-0.7V9.7H5.5C5.2,9.7,4.8,9.4,4.8,9c0-0.4,0.3-0.7,0.7-0.7c0,0,0,0,0.1,0h2.8V5.5
				c0-0.4,0.3-0.7,0.7-0.7s0.7,0.3,0.7,0.7v2.8C9.7,8.3,12.5,8.3,12.5,8.3z"/>
		</g>
	</mask>
	<g style="mask:url(#action-zoom-in-line-b);">
		<path style="fill:#111111;" d="M-12-12h48v48h-48V-12z"/>
	</g>
</g>
</svg>
